packages/core/src/svgs/tokens/mono/SUIP.svg

<svg width="24" height="24" viewBox="0 0 24 24" fill="none" xmlns="http://www.w3.org/2000/svg">
<path d="M20.6211 10.0192L17.9682 7.37637H17.9632L17.9582 7.36638C17.5235 6.93161 17.007 6.58725 16.4384 6.35316C15.87 6.11907 15.2607 5.99988 14.6459 6.00248C13.6817 6.00248 12.7674 6.29225 11.993 6.82183C11.2138 6.28683 10.2904 6.00111 9.34519 6.00248C8.09119 6.00248 6.91214 6.49209 6.02786 7.37137L3.37999 10.0143C2.94284 10.4459 2.59576 10.9601 2.35887 11.527C2.12198 12.0939 2 12.7022 2 13.3165C2 13.931 2.12198 14.5393 2.35887 15.1062C2.59576 15.6731 2.94284 16.1873 3.37999 16.6189C3.81447 17.0543 4.33084 17.3995 4.89933 17.6345C5.46783 17.8694 6.0772 17.9895 6.69232 17.9878C7.65155 17.9878 8.56582 17.698 9.34019 17.1684C10.1228 17.704 11.0499 17.9881 11.9981 17.9828C12.9572 17.9828 13.8715 17.698 14.6459 17.1634C15.289 17.6106 16.0344 17.8885 16.8133 17.9715C17.5923 18.0545 18.3795 17.9398 19.1024 17.6381C19.9594 17.2878 20.6928 16.6902 21.2088 15.9214C21.7249 15.1526 22.0003 14.2475 22 13.3215C22.0007 12.7084 21.8796 12.1011 21.6438 11.5351C21.4079 10.9691 21.0619 10.4555 20.6261 10.0242L20.6211 10.0192ZM7.90134 15.8445C7.30384 16.1427 6.61937 16.2173 5.97162 16.0549C5.32388 15.8926 4.75559 15.5038 4.36945 14.959C3.9833 14.4142 3.80477 13.7493 3.86612 13.0842C3.92746 12.4193 4.22463 11.7982 4.70393 11.3332L7.3518 8.69531C7.76196 8.28175 8.29097 8.00651 8.86505 7.908C9.43912 7.80949 10.0296 7.89261 10.5542 8.14575L8.68073 10.0143C8.24401 10.4459 7.8976 10.9603 7.66173 11.5273C7.42584 12.0943 7.3052 12.7025 7.30683 13.3165C7.30683 14.2059 7.55663 15.0552 8.01626 15.7896L7.90134 15.8445ZM13.9814 15.295C13.59 15.6903 13.0894 15.9599 12.544 16.0694C11.9984 16.1789 11.4327 16.1233 10.9189 15.9095C10.4905 15.7354 10.1119 15.458 9.81698 15.1017C9.52209 14.7456 9.32006 14.3219 9.22899 13.8685C9.13792 13.4152 9.16065 12.9462 9.29513 12.5038C9.42962 12.0614 9.67173 11.6592 9.99965 11.3332L11.9981 9.34979L13.9864 11.3332C14.247 11.5931 14.4538 11.9018 14.5948 12.2417C14.7359 12.5817 14.8085 12.9461 14.8085 13.3141C14.8085 13.6821 14.7359 14.0465 14.5948 14.3864C14.4538 14.7264 14.247 15.0351 13.9864 15.295H13.9814ZM19.2921 15.3099C18.8629 15.7369 18.3077 16.0145 17.7085 16.1018C17.1094 16.189 16.4981 16.0813 15.9648 15.7946C16.5551 14.8621 16.7926 13.7494 16.6343 12.6571C16.4894 11.6579 16.0347 10.7386 15.3053 10.0143L13.4468 8.15076L13.4369 8.14075C14.4861 7.64616 15.775 7.82601 16.6343 8.69031H16.6443V8.7003L19.2871 11.3282L19.2971 11.3432C19.5595 11.6021 19.7679 11.9104 19.9101 12.2505C20.0523 12.5905 20.1255 12.9555 20.1255 13.3241C20.1255 13.6927 20.0523 14.0576 19.9101 14.3976C19.7679 14.7377 19.5595 15.0461 19.2971 15.305L19.2921 15.3099Z" fill="white"/>
</svg>

<svg xmlns="http://www.w3.org/2000/svg" width="24" height="24" fill="none" viewBox="0 0 24 24">
    <path fill="#fff" d="m20.621 10.02-2.653-2.644h-.005l-.005-.01a4.66 4.66 0 0 0-3.312-1.364c-.964 0-1.879.29-2.653.82a4.67 4.67 0 0 0-2.648-.82 4.68 4.68 0 0 0-3.317 1.37L3.38 10.013a4.64 4.64 0 0 0 0 6.605 4.66 4.66 0 0 0 3.312 1.369c.96 0 1.874-.29 2.648-.82a4.66 4.66 0 0 0 2.658.815 4.63 4.63 0 0 0 2.648-.82 4.66 4.66 0 0 0 4.456.475 4.66 4.66 0 0 0 2.542-6.103 4.6 4.6 0 0 0-1.018-1.51zm-12.72 5.825a2.798 2.798 0 0 1-3.197-4.512l2.648-2.638a2.8 2.8 0 0 1 3.202-.55l-1.873 1.87a4.62 4.62 0 0 0-1.374 3.301c0 .89.25 1.74.71 2.474zm6.08-.55a2.8 2.8 0 0 1-3.062.614 2.797 2.797 0 0 1-.92-4.576l2-1.983 1.987 1.983a2.797 2.797 0 0 1 0 3.962zm5.311.015a2.82 2.82 0 0 1-3.327.485 4.64 4.64 0 0 0-.66-5.781l-1.858-1.863-.01-.01a2.815 2.815 0 0 1 3.197.55h.01v.01l2.643 2.627.01.015a2.78 2.78 0 0 1 0 3.962z"/>
</svg>
